.local/share/icons/Gruvbox-Plus-Dark/actions/16/path-outset.svg

<svg width="16" height="16" version="1.1" xmlns="http://www.w3.org/2000/svg">
  <defs>
    <style id="current-color-scheme" type="text/css">.ColorScheme-Text { color:#ebdbb2; } .ColorScheme-Highlight { color:#458588; }</style>
  </defs>
  <path class="ColorScheme-Text" d="m0 9v2c2.77 0 5 2.23 5 5h2c0-3.878-3.122-7-7-7z" fill="currentColor" opacity=".3"/>
  <path class="ColorScheme-Text" d="m0 0v2c7.756 0 14 6.244 14 14h2c0-8.864-7.136-16-16-16zm9 7v6l-6-6z" fill="currentColor"/>
</svg>

<svg xmlns="http://www.w3.org/2000/svg" width="16" height="16" version="1.1">
 <defs>
  <style id="current-color-scheme" type="text/css">
   .ColorScheme-Text { color:#565656; } .ColorScheme-Highlight { color:#4285f4; }
  </style>
 </defs>
 <path style="opacity:0.3;fill:currentColor" class="ColorScheme-Text" d="M 0,9 V 11 C 2.77,11 5,13.23 5,16 H 7 C 7,12.122 3.878,9 0,9 Z"/>
 <path style="fill:currentColor" class="ColorScheme-Text" d="M 0,0 V 2 C 7.756,2 14,8.244 14,16 H 16 C 16,7.136 8.864,0 0,0 Z M 9,7 V 13 L 3,7 Z"/>
</svg>
